X: 35122
T: Rolling Waves, The
R: jig
M: 6/8
K: Dmajor
|:FEF DED|D2d cAG|FEF DED|A2F GFE|
FEF DED|D2d cAG|FAF GBG|~A2F GFE:|
D2d cAd|cAd cAG|F2d dAF|~BAF GFE|
D2d cAd|cAd cAG|FAF GBG|~A2F GFE||
D2d cAd|cAd cAG|F2d dAF|~BAF GFE|
D2d cde|fed cAG|FAF GBG|~A2F GFE||

